X:1
T:Hallelujah for the Cross!
T:Hallelujah for the Cross!
T: James McGranahan, 1882
T:Horatius Bonar, 1875
T:Public Domain Courtesy of the Cyber Hymnal™
T:Public Domain Courtesy of the Cyber Hymnal™
C:James McGranahan, 1882
Z:Public Domain
Z:Courtesy of the Cyber Hymnal™
%%score ( 1 2 ) ( 3 4 )
L:1/8
Q:1/4=115
M:4/4
K:Bb
V:1 treble 
V:2 treble 
V:3 bass 
V:4 bass 
V:1
 F2 | B,3 A, (B,C) | F6 [DB]>[Ec] | [DB]4 [CA]2 [Ec]>[Fd] | [Ec]4 [DB]2 G2 | C3 =B, (CD) | %6
w: 1.~The|cross, it stand- *|eth fast— Hal-|le- lu- jah, hal-|le- lu- jah!|De- fy- ing *|
w: 2.~It|is the old *|cross still— Hal-|le- lu- jah, hal-|le- lu- jah!|Its tri- umph *|
w: 3.~’Twas|here the debt *|was paid— Hal-|le- lu- jah, hal-|le- lu- jah!|Our sins on *|
 G6 [=Ec]>[Ed] | [Fc]4 [FA]2 [=EB]>[EG] | [=EG]4 !fermata!F2 (FG) | [FA]2 [FA]2 [FA]2 ([GB][=EG]) | %10
w: ev- ery blast—|Hal- le- lu- jah,|hal- le- lu- *|jah! The winds of *|
w: let us tell—|Hal- le- lu- jah,|hal- le- lu- *|jah! The grace of *|
w: Je- sus laid—|Hal- le- lu- jah,|hal- le- lu- *|jah! So round the *|
 [FA]6 ([FA][GB]) | [Ac]2 [Ac]2 [Ac]2 ([Bd][^G=B]) | [Ac]6 ([Fc][Bd]) | [Ae]2 [Ae]2 [Ae]2 (dc) | %14
w: hell have *|blown, The world its *|hate hath *|shown, Yet~it is not *|
w: God here *|shone Thru Christ, the *|bless- èd *|Son, Who did for *|
w: cross we *|sing Of Christ, our *|of- fer- *|ing, Of Christ, our *|
 [FBf]6 [Ge]>[Ge] | [Fd]3 [DB] [Ec]3 [Ec] | [DB]6 ||"^Refrain" [DB]>[Ec] | [Fd]2 [Fd]4 [Ge]>[Fd] | %19
w: o- ver- thrown—|Hal- le- lu- jah|for|the cross!||
w: sin a- tone—|Hal- le- lu- jah|for|the cross!||
w: liv- ing king—|Hal- le- lu- jah|for|the cross!||
 [Ec]2 [Ec]4 [CA]>[DB] | [Ec]3 [Ec] (dc) (Bc) | [Fd]6 [DB]>[Ec] | [Fd]2 [Fd]4 [_Af]>[Af] | %23
w: ||||
w: ||||
w: ||||
 [_Af]2 [Ge]4 [Ge][Ge] | [Fd] [Fd]3 [Bd] [Ac]3 | [FB]6 |] %26
w: |||
w: |||
w: |||
V:2
 F2 | B,3 A, (DE) | F6 x2 | x8 | x6 G2 | C3 =B, (EF) | G6 x2 | x8 | x4 F2 F2 | x8 | x8 | x8 | x8 | %13
 x6 F2 | x8 | x8 | x6 || x2 | x8 | x8 | x4 F2 F2 | x8 | x8 | x8 | x8 | x6 |] %26
V:3
 F,2 | B,,3 A,, (B,,C,) | F,6 F,>F, | F,4 F,2 [F,A,]>[F,B,] | [F,A,]4 [B,,F,]2 G,2 | %5
w: ~|~ ~ ~ *|~ ~ ~|~ ~ ~ ~|~ ~ ~|
 C,3 =B,, (C,D,) | G,6 [C,G,]>[C,B,] | [C,A,]4 [C,C]2 [C,G,]>[C,B,] | [C,B,]4 !fermata![C,A,]2 z2 | %9
w: ~ ~ ~ *|~ ~ ~|~ ~ ~ ~|~ ~|
 [F,C]6 [C,C]2 | [F,C]6 z2 | [F,C]6 (B,D) | [F,C]6 ([F,A,][F,B,]) | %13
w: ~ ~|~|~ ~ *|~ ~ *|
 [F,C]2 [F,C]2 [F,C]2 ([F,B,][E,A,]) | [D,B,]6 [E,B,]>[E,B,] | [F,B,]3 [F,B,] [F,A,]3 [F,A,] | %16
w: ~ ~ ~ ~ *|~ ~ ~|~ ~ ~ ~|
 [B,,B,]6 || [B,,B,]>[B,,B,] | B,2 B,4 B,>B, | [F,A,]2 [F,A,]4 [F,C]>[F,B,] | %20
w: ~|~ ~|Hal- le- lu- jah,|hal- le- lu- jah,|
 [F,A,]3 [F,A,] A,2 ([D,B,][C,A,]) | [B,,B,]6 [B,,F,]>[B,,F,] | [B,,B,]2 [B,,B,]4 [D,B,]>[D,B,] | %23
w: hal- le- lu- jah *|for the cross;|Hal- le- lu- jah,|
 [E,B,]2 [E,B,]4 [E,B,][E,B,] | [F,B,] [F,B,]3 [F,F] [F,E]3 | [B,,B,D]6 |] %26
w: hal- le- lu- jah,|it shall nev- er|suf-|
V:4
 F,2 | B,,3 A,, (D,E,) | F,6 F,>F, | F,4 F,2 x2 | x6 G,2 | C,3 =B,, (E,F,) | G,6 x2 | x8 | x8 | %9
 x8 | x8 | x6 F,2 | x8 | x8 | x8 | x8 | x6 || x2 | B,2 B,4 B,>B, | x8 | x4 (F,E,) x2 | x8 | x8 | %23
 x8 | x8 | x6 |] %26

